X:1136
M:6/8
L:1/8
Q:3/8=120
K:D
dfd cec|BdB ABc|dcd efg|faf ecA  |!
dfd cec|BdB ABc|dcB AGF|EDE FDB,:|

